X:30
T:The Boisdale Trio
R:reel
C:Paul S. Cranford
O:Cape Breton Island
S:http://www.cranfordpub.com
D:currently unrecorded
B:The Cape Breton Fiddlers Collection
Z:psc
H:                                                        copyrights Cranford Publications, SOCAN
L:1/8
Q:333
M:c|
K:C
e|g2 ec Gcea|gedc d/d/d ce|g2 ec Gcea|gede c/c/c ce|
gcec Gcea|gedc d/d/d cd|ecdB cGAc|GEDB, C/C/C C||
||D|ECEG c2 ca|gcec dcAc|ECEG cGA^F|GEDB, C/C/C CD|
ECEG c2 ca|gcec dcAe|gaec dBcG|AcGE C/C/C C|]
